; generated by Slic3r Prusa Edition 1.40.1+win64 on 2018-08-13 at 00:36:06

; 

; external perimeters extrusion width = 0.45mm
; perimeters extrusion width = 0.45mm
; infill extrusion width = 0.45mm
; solid infill extrusion width = 0.45mm
; top infill extrusion width = 0.40mm
; first layer extrusion width = 0.42mm

M107
M115 U3.3.1 ; tell printer latest fw version
M201 X1000 Y1000 Z1000 E9000 ; sets maximum accelerations, mm/sec^2
M203 X200 Y200 Z12 E120 ; sets maximum feedrates, mm/sec
M204 S1250 T1250 ; sets acceleration (S) and retract acceleration (T)
M205 X8 Y8 Z0.4 E1.5 ; sets the jerk limits, mm/sec
M205 S0 T0 ; sets the minimum extruding and travel feed rate, mm/sec
M83  ; extruder relative mode
M104 S205 ; set extruder temp
M140 S65 ; set bed temp
M190 S65 ; wait for bed temp
M109 S205 ; wait for extruder temp
G28 W ; home all without mesh bed level
G80 ; mesh bed leveling
G1 Y-3.0 F1000.0 ; go outside print area
G92 E0.0
G1 X60.0 E9.0  F1000.0 ; intro line
G1 X100.0 E12.5  F1000.0 ; intro line
G92 E0.0
M221 S100
M900 K30; Filament gcode
G21 ; set units to millimeters
G90 ; use absolute coordinates
M83 ; use relative distances for extrusion
;BEFORE_LAYER_CHANGE
G92 E0.0
;0.2


G1 E-10.00000 F4800.00000
G1 Z0.600 F10800.000
;AFTER_LAYER_CHANGE
;0.2
G1 X117.107 Y89.834
G1 Z0.200
G1 E10.00000 F4800.00000
M204 S500
G1 F1800
G1 X117.695 Y89.395 E0.02300
G1 X118.386 Y89.139 E0.02312
G1 X118.901 Y89.082 E0.01623
G1 X125.926 Y89.082 E0.22028
G1 X126.861 Y89.261 E0.02985
G1 X127.667 Y89.767 E0.02985
G1 X128.233 Y90.533 E0.02985
G1 X128.480 Y91.453 E0.02985
G1 X128.488 Y121.652 E0.94688
G1 X128.431 Y122.186 E0.01684
G1 X128.170 Y122.884 E0.02337
G1 X127.720 Y123.478 E0.02337
G1 X127.118 Y123.918 E0.02337
G1 X126.415 Y124.166 E0.02337
G1 X118.918 Y124.214 E0.23507
G1 X118.384 Y124.157 E0.01684
G1 X117.614 Y123.855 E0.02594
G1 X116.977 Y123.321 E0.02606
G1 X116.544 Y122.611 E0.02606
G1 X116.361 Y121.800 E0.02606
G1 X116.357 Y91.644 E0.94552
G1 X116.414 Y91.110 E0.01684
G1 X116.668 Y90.422 E0.02300
G1 X117.072 Y89.883 E0.02112
G1 F8640
G1 X117.695 Y89.395 E-0.41760
G1 X118.386 Y89.139 E-0.38920
G1 X118.901 Y89.082 E-0.27313
G1 X125.926 Y89.082 E-3.70785
G1 X126.861 Y89.261 E-0.50249
G1 X127.667 Y89.767 E-0.50249
G1 X128.233 Y90.533 E-0.50249
G1 X128.480 Y91.453 E-0.50249
G1 X128.482 Y96.573 E-2.70226
G1 E-0.50000 F4800.00000
G1 Z0.800 F10800.000
G1 X116.783 Y91.184
G1 Z0.200
G1 E10.00000 F4800.00000
G1 F1800
G1 X117.008 Y90.587 E0.01998
G1 X117.395 Y90.081 E0.01998
G1 X117.911 Y89.707 E0.01998
G1 X118.517 Y89.497 E0.02010
G1 X125.926 Y89.459 E0.23231
G1 X126.729 Y89.614 E0.02563
G1 X127.419 Y90.051 E0.02563
G1 X127.901 Y90.712 E0.02563
G1 X128.106 Y91.507 E0.02574
G1 X128.061 Y122.112 E0.95961
G1 X127.833 Y122.715 E0.02021
G1 X127.439 Y123.225 E0.02021
G1 X126.914 Y123.599 E0.02021
G1 X126.299 Y123.804 E0.02032
G1 X118.458 Y123.787 E0.24585
G1 X117.798 Y123.526 E0.02225
G1 X117.254 Y123.065 E0.02236
G1 X116.888 Y122.457 E0.02225
G1 X116.736 Y121.760 E0.02236
G1 X116.783 Y91.244 E0.95681
G1 F8640
G1 X117.008 Y90.587 E-0.36619
G1 X117.395 Y90.081 E-0.33636
G1 X117.911 Y89.707 E-0.33636
G1 X118.517 Y89.497 E-0.33827
G1 X125.926 Y89.459 E-3.91046
G1 X126.729 Y89.614 E-0.43146
G1 X127.419 Y90.051 E-0.43146
G1 X127.901 Y90.712 E-0.43146
G1 X128.106 Y91.507 E-0.43336
G1 X128.099 Y96.215 E-2.48461
G1 E-0.50000 F4800.00000
G1 Z0.800 F10800.000
G1 X119.886 Y92.612
G1 Z0.200
G1 E10.00000 F4800.00000
G1 F1800
G1 X124.958 Y92.612 E0.15902
G1 X124.958 Y120.684 E0.88017
G1 X119.886 Y120.684 E0.15902
G1 X119.886 Y92.672 E0.87829
G1 X119.509 Y92.235 F10800.000
G1 F1800
G1 X125.335 Y92.235 E0.18267
G1 X125.335 Y121.061 E0.90381
G1 X119.509 Y121.061 E0.18267
G1 X119.509 Y92.295 E0.90193
G1 X119.132 Y91.858 F10800.000
G1 F1800
G1 X125.712 Y91.858 E0.20631
G1 X125.712 Y121.438 E0.92746
G1 X119.132 Y121.438 E0.20631
G1 X119.132 Y91.918 E0.92558
G1 X119.492 Y92.032 F10800.000
G1 F8640
G1 X125.712 Y91.858 E-3.47292
G1 X125.712 Y103.278 E-6.02708
G1 E-0.50000 F4800.00000
G1 Z0.800 F10800.000
G1 X124.845 Y93.493
G1 Z0.200
G1 E10.00000 F4800.00000
G1 F1800
G1 X124.247 Y92.895 E0.02673
G1 X123.709 Y92.895 E0.01696
G1 X124.675 Y93.861 E0.04314
G1 X124.675 Y94.398 E0.01696
G1 X123.172 Y92.895 E0.06713
G1 X122.635 Y92.895 E0.01696
G1 X124.675 Y94.935 E0.09112
G1 X124.675 Y95.472 E0.01696
G1 X122.098 Y92.895 E0.11512
G1 X121.561 Y92.895 E0.01696
G1 X124.675 Y96.009 E0.13911
G1 X124.675 Y96.547 E0.01696
G1 X121.024 Y92.895 E0.16310
G1 X120.486 Y92.895 E0.01696
G1 X124.675 Y97.084 E0.18709
G1 X124.675 Y97.621 E0.01696
G1 X120.169 Y93.115 E0.20126
G1 X120.169 Y93.652 E0.01696
G1 X124.675 Y98.158 E0.20126
G1 X124.675 Y98.695 E0.01696
G1 X120.169 Y94.189 E0.20126
G1 X120.169 Y94.726 E0.01696
G1 X124.675 Y99.232 E0.20126
G1 X124.675 Y99.770 E0.01696
G1 X120.169 Y95.263 E0.20126
G1 X120.169 Y95.801 E0.01696
G1 X124.675 Y100.307 E0.20126
G1 X124.675 Y100.844 E0.01696
G1 X120.169 Y96.338 E0.20126
G1 X120.169 Y96.875 E0.01696
G1 X124.675 Y101.381 E0.20126
G1 X124.675 Y101.918 E0.01696
G1 X120.169 Y97.412 E0.20126
G1 X120.169 Y97.949 E0.01696
G1 X124.675 Y102.455 E0.20126
G1 X124.675 Y102.992 E0.01696
G1 X120.169 Y98.486 E0.20126
G1 X120.169 Y99.023 E0.01696
G1 X124.675 Y103.530 E0.20126
G1 X124.675 Y104.067 E0.01696
G1 X120.169 Y99.561 E0.20126
G1 X120.169 Y100.098 E0.01696
G1 X124.675 Y104.604 E0.20126
G1 X124.675 Y105.141 E0.01696
G1 X120.169 Y100.635 E0.20126
G1 X120.169 Y101.172 E0.01696
G1 X124.675 Y105.678 E0.20126
G1 X124.675 Y106.215 E0.01696
G1 X120.169 Y101.709 E0.20126
G1 X120.169 Y102.246 E0.01696
G1 X124.675 Y106.753 E0.20126
G1 X124.675 Y107.290 E0.01696
G1 X120.169 Y102.784 E0.20126
G1 X120.169 Y103.321 E0.01696
G1 X124.675 Y107.827 E0.20126
G1 X124.675 Y108.364 E0.01696
G1 X120.169 Y103.858 E0.20126
G1 X120.169 Y104.395 E0.01696
G1 X124.675 Y108.901 E0.20126
G1 X124.675 Y109.438 E0.01696
G1 X120.169 Y104.932 E0.20126
G1 X120.169 Y105.469 E0.01696
G1 X124.675 Y109.975 E0.20126
G1 X124.675 Y110.513 E0.01696
G1 X120.169 Y106.006 E0.20126
G1 X120.169 Y106.544 E0.01696
G1 X124.675 Y111.050 E0.20126
G1 X124.675 Y111.587 E0.01696
G1 X120.169 Y107.081 E0.20126
G1 X120.169 Y107.618 E0.01696
G1 X124.675 Y112.124 E0.20126
G1 X124.675 Y112.661 E0.01696
G1 X120.169 Y108.155 E0.20126
G1 X120.169 Y108.692 E0.01696
G1 X124.675 Y113.198 E0.20126
G1 X124.675 Y113.736 E0.01696
G1 X120.169 Y109.229 E0.20126
G1 X120.169 Y109.767 E0.01696
G1 X124.675 Y114.273 E0.20126
G1 X124.675 Y114.810 E0.01696
G1 X120.169 Y110.304 E0.20126
G1 X120.169 Y110.841 E0.01696
G1 X124.675 Y115.347 E0.20126
G1 X124.675 Y115.884 E0.01696
G1 X120.169 Y111.378 E0.20126
G1 X120.169 Y111.915 E0.01696
G1 X124.675 Y116.421 E0.20126
G1 X124.675 Y116.958 E0.01696
G1 X120.169 Y112.452 E0.20126
G1 X120.169 Y112.989 E0.01696
G1 X124.675 Y117.496 E0.20126
G1 X124.675 Y118.033 E0.01696
G1 X120.169 Y113.527 E0.20126
G1 X120.169 Y114.064 E0.01696
G1 X124.675 Y118.570 E0.20126
G1 X124.675 Y119.107 E0.01696
G1 X120.169 Y114.601 E0.20126
G1 X120.169 Y115.138 E0.01696
G1 X124.675 Y119.644 E0.20126
G1 X124.675 Y120.181 E0.01696
G1 X120.169 Y115.675 E0.20126
G1 X120.169 Y116.212 E0.01696
G1 X124.358 Y120.401 E0.18708
G1 X123.821 Y120.401 E0.01696
G1 X120.169 Y116.750 E0.16309
G1 X120.169 Y117.287 E0.01696
G1 X123.283 Y120.401 E0.13910
G1 X122.746 Y120.401 E0.01696
G1 X120.169 Y117.824 E0.11511
G1 X120.169 Y118.361 E0.01696
G1 X122.209 Y120.401 E0.09112
G1 X121.672 Y120.401 E0.01696
G1 X120.169 Y118.898 E0.06713
G1 X120.169 Y119.435 E0.01696
G1 X121.135 Y120.401 E0.04313
G1 X120.598 Y120.401 E0.01696
G1 X119.999 Y119.803 E0.02672
M106 S255
;BEFORE_LAYER_CHANGE
G92 E0.0
;0.25


G1 F8640
G1 X120.598 Y120.401 E-0.44654
G1 X121.135 Y120.401 E-0.28350
G1 X120.169 Y119.435 E-0.72082
G1 X120.169 Y118.898 E-0.28350
G1 X121.672 Y120.401 E-1.12174
G1 X122.209 Y120.401 E-0.28350
G1 X120.169 Y118.361 E-1.52267
G1 X120.169 Y117.824 E-0.28350
G1 X122.746 Y120.401 E-1.92360
G1 X123.283 Y120.401 E-0.28350
G1 X120.169 Y117.287 E-2.32452
G1 X120.169 Y117.244 E-0.02262
G1 E-0.50000 F4800.00000
G1 Z0.800 F10800.000
;AFTER_LAYER_CHANGE
;0.25
M104 S200 ; set temperature
G1 X116.544 Y122.611
G1 Z0.250
G1 E10.00000 F4800.00000
G1 F1800
G1 X116.361 Y121.800 E0.00707
G1 X116.357 Y91.644 E0.25656
G1 X116.414 Y91.110 E0.00457
G1 X116.668 Y90.422 E0.00624
G1 X117.107 Y89.834 E0.00624
G1 X117.695 Y89.395 E0.00624
G1 X118.386 Y89.139 E0.00627
G1 X118.901 Y89.082 E0.00440
G1 X125.926 Y89.082 E0.05977
G1 X126.861 Y89.261 E0.00810
G1 X127.667 Y89.767 E0.00810
G1 X128.233 Y90.533 E0.00810
G1 X128.480 Y91.453 E0.00810
G1 X128.488 Y121.652 E0.25693
G1 X128.431 Y122.186 E0.00457
G1 X128.170 Y122.884 E0.00634
G1 X127.720 Y123.478 E0.00634
G1 X127.118 Y123.918 E0.00634
G1 X126.415 Y124.166 E0.00634
G1 X118.918 Y124.214 E0.06379
G1 X118.384 Y124.157 E0.00457
G1 X117.614 Y123.855 E0.00704
G1 X116.977 Y123.321 E0.00707
G1 X116.575 Y122.662 E0.00656
G1 F8640
G1 X116.361 Y121.800 E-0.46885
G1 X116.359 Y104.688 E-9.03115
G1 E-0.50000 F4800.00000
G1 Z0.850 F10800.000
G1 X120.026 Y120.544
G1 Z0.250
G1 E10.00000 F4800.00000
M204 S300
G1 F1800
G1 X120.026 Y92.752 E0.25379
G1 X124.819 Y92.752 E0.04377
G1 X124.819 Y120.544 E0.25379
G1 X120.086 Y120.544 E0.04322
M204 S500
G1 X119.586 Y120.984 F10800.000
M204 S300
G1 F1800
G1 X119.586 Y92.312 E0.26181
G1 X125.258 Y92.312 E0.05179
G1 X125.258 Y120.984 E0.26181
G1 X119.646 Y120.984 E0.05124
M204 S500
G1 X119.147 Y121.423 F10800.000
M204 S300
G1 F1200
G1 X119.147 Y91.873 E0.26983
G1 X125.697 Y91.873 E0.05981
G1 X125.697 Y121.423 E0.26983
G1 X119.207 Y121.423 E0.05926
M204 S500
G1 X119.176 Y121.024 F10800.000
G1 F8640
G1 X119.171 Y103.423 E-9.50000
G1 E-0.50000 F4800.00000
G1 Z0.850 F10800.000
G1 X123.785 Y120.413
G1 Z0.250
G1 E10.00000 F4800.00000
M204 S800
G1 F1800
G1 X124.489 Y119.709 E0.00922
G1 X124.489 Y119.078 E0.00584
G1 X123.353 Y120.215 E0.01489
G1 X122.722 Y120.215 E0.00584
G1 X124.489 Y118.448 E0.02315
G1 X124.489 Y117.818 E0.00584
G1 X122.092 Y120.215 E0.03141
G1 X121.462 Y120.215 E0.00584
G1 X124.489 Y117.187 E0.03967
G1 X124.489 Y116.557 E0.00584
G1 X120.831 Y120.215 E0.04793
G1 X120.355 Y120.215 E0.00441
G1 X120.355 Y120.061 E0.00143
G1 X124.489 Y115.927 E0.05417
G1 X124.489 Y115.296 E0.00584
G1 X120.355 Y119.431 E0.05417
G1 X120.355 Y118.800 E0.00584
G1 X124.489 Y114.666 E0.05417
G1 X124.489 Y114.036 E0.00584
G1 X120.355 Y118.170 E0.05417
G1 X120.355 Y117.540 E0.00584
G1 X124.489 Y113.406 E0.05417
G1 X124.489 Y112.775 E0.00584
G1 X120.355 Y116.909 E0.05417
G1 X120.355 Y116.279 E0.00584
G1 X124.489 Y112.145 E0.05417
G1 X124.489 Y111.515 E0.00584
G1 X120.355 Y115.649 E0.05417
G1 X120.355 Y115.018 E0.00584
G1 X124.489 Y110.884 E0.05417
G1 X124.489 Y110.254 E0.00584
G1 X120.355 Y114.388 E0.05417
G1 X120.355 Y113.758 E0.00584
G1 X124.489 Y109.624 E0.05417
G1 X124.489 Y108.993 E0.00584
G1 X120.355 Y113.127 E0.05417
G1 X120.355 Y112.497 E0.00584
G1 X124.489 Y108.363 E0.05417
G1 X124.489 Y107.733 E0.00584
G1 X120.355 Y111.867 E0.05417
G1 X120.355 Y111.236 E0.00584
G1 X124.489 Y107.102 E0.05417
G1 X124.489 Y106.472 E0.00584
G1 X120.355 Y110.606 E0.05417
G1 X120.355 Y109.976 E0.00584
G1 X124.489 Y105.842 E0.05417
G1 X124.489 Y105.211 E0.00584
G1 X120.355 Y109.345 E0.05417
G1 X120.355 Y108.715 E0.00584
G1 X124.489 Y104.581 E0.05417
G1 X124.489 Y103.951 E0.00584
G1 X120.355 Y108.085 E0.05417
G1 X120.355 Y107.454 E0.00584
G1 X124.489 Y103.320 E0.05417
G1 X124.489 Y102.690 E0.00584
G1 X120.355 Y106.824 E0.05417
G1 X120.355 Y106.194 E0.00584
G1 X124.489 Y102.060 E0.05417
G1 X124.489 Y101.429 E0.00584
G1 X120.355 Y105.563 E0.05417
G1 X120.355 Y104.933 E0.00584
G1 X124.489 Y100.799 E0.05417
G1 X124.489 Y100.169 E0.00584
G1 X120.355 Y104.303 E0.05417
G1 X120.355 Y103.672 E0.00584
G1 X124.489 Y99.538 E0.05417
G1 X124.489 Y98.908 E0.00584
G1 X120.355 Y103.042 E0.05417
G1 X120.355 Y102.412 E0.00584
G1 X124.489 Y98.278 E0.05417
G1 X124.489 Y97.647 E0.00584
G1 X120.355 Y101.781 E0.05417
G1 X120.355 Y101.151 E0.00584
G1 X124.489 Y97.017 E0.05417
G1 X124.489 Y96.387 E0.00584
G1 X120.355 Y100.521 E0.05417
G1 X120.355 Y99.890 E0.00584
G1 X124.489 Y95.756 E0.05417
G1 X124.489 Y95.126 E0.00584
G1 X120.355 Y99.260 E0.05417
G1 X120.355 Y98.630 E0.00584
G1 X124.489 Y94.496 E0.05417
G1 X124.489 Y93.865 E0.00584
G1 X120.355 Y97.999 E0.05417
G1 X120.355 Y97.369 E0.00584
G1 X124.489 Y93.235 E0.05417
G1 X124.489 Y93.081 E0.00143
G1 X124.013 Y93.081 E0.00441
G1 X120.355 Y96.739 E0.04793
G1 X120.355 Y96.109 E0.00584
G1 X123.383 Y93.081 E0.03967
G1 X122.752 Y93.081 E0.00584
G1 X120.355 Y95.478 E0.03141
G1 X120.355 Y94.848 E0.00584
G1 X122.122 Y93.081 E0.02315
G1 X121.492 Y93.081 E0.00584
G1 X120.355 Y94.218 E0.01489
G1 X120.355 Y93.587 E0.00584
G1 X121.059 Y92.883 E0.00922
M204 S500
;BEFORE_LAYER_CHANGE
G92 E0.0
;0.3


G1 F8640
G1 X120.355 Y93.587 E-0.52537
G1 X120.355 Y94.218 E-0.33267
G1 X121.492 Y93.081 E-0.84830
G1 X122.122 Y93.081 E-0.33267
G1 X120.355 Y94.848 E-1.31876
G1 X120.355 Y95.478 E-0.33267
G1 X122.752 Y93.081 E-1.78923
G1 X123.383 Y93.081 E-0.33267
G1 X120.355 Y96.109 E-2.25970
G1 X120.355 Y96.739 E-0.33267
G1 X121.823 Y95.271 E-1.09528
G1 E-0.50000 F4800.00000
G1 Z0.850 F10800.000
;AFTER_LAYER_CHANGE
;0.3
G1 X126.861 Y89.261
G1 Z0.300
G1 E10.00000 F4800.00000
G1 F1800
G1 X127.667 Y89.767 E0.00810
G1 X128.233 Y90.533 E0.00810
G1 X128.480 Y91.453 E0.00810
G1 X128.488 Y121.652 E0.25693
G1 X128.431 Y122.186 E0.00457
G1 X128.170 Y122.884 E0.00634
G1 X127.720 Y123.478 E0.00634
G1 X127.118 Y123.918 E0.00634
G1 X126.415 Y124.166 E0.00634
G1 X118.918 Y124.214 E0.06379
G1 X118.384 Y124.157 E0.00457
G1 X117.614 Y123.855 E0.00704
G1 X116.977 Y123.321 E0.00707
G1 X116.544 Y122.611 E0.00707
G1 X116.361 Y121.800 E0.00707
G1 X116.357 Y91.644 E0.25656
G1 X116.414 Y91.110 E0.00457
G1 X116.668 Y90.422 E0.00624
G1 X117.107 Y89.834 E0.00624
G1 X117.695 Y89.395 E0.00624
G1 X118.386 Y89.139 E0.00627
G1 X118.901 Y89.082 E0.00440
G1 X125.926 Y89.082 E0.05977
G1 X126.802 Y89.249 E0.00759
G1 F8640
G1 X127.667 Y89.767 E-0.53210
G1 X128.233 Y90.533 E-0.50249
G1 X128.480 Y91.453 E-0.50249
G1 X128.484 Y106.540 E-7.96291
G1 E-0.50000 F4800.00000
G1 Z0.900 F10800.000
G1 X124.819 Y92.752
G1 Z0.300
G1 E10.00000 F4800.00000
M204 S300
G1 F1800
G1 X124.819 Y120.544 E0.25379
G1 X120.026 Y120.544 E0.04377
G1 X120.026 Y92.752 E0.25379
G1 X124.759 Y92.752 E0.04322
M204 S500
G1 X125.258 Y92.312 F10800.000
M204 S300
G1 F1800
G1 X125.258 Y120.984 E0.26181
G1 X119.586 Y120.984 E0.05179
G1 X119.586 Y92.312 E0.26181
G1 X125.198 Y92.312 E0.05124
M204 S500
G1 X125.697 Y91.873 F10800.000
M204 S300
G1 F1200
G1 X125.697 Y121.423 E0.26983
G1 X119.147 Y121.423 E0.05981
G1 X119.147 Y91.873 E0.26983
G1 X125.637 Y91.873 E0.05926
M204 S500
G1 X125.668 Y92.272 F10800.000
G1 F8640
G1 X125.674 Y109.873 E-9.50000
G1 E-0.50000 F4800.00000
G1 Z0.900 F10800.000
G1 X124.687 Y93.785
G1 Z0.300
G1 E10.00000 F4800.00000
M204 S800
G1 F1800
G1 X123.983 Y93.081 E0.00922
G1 X123.353 Y93.081 E0.00584
G1 X124.489 Y94.218 E0.01489
G1 X124.489 Y94.848 E0.00584
G1 X122.722 Y93.081 E0.02315
G1 X122.092 Y93.081 E0.00584
G1 X124.489 Y95.478 E0.03141
G1 X124.489 Y96.109 E0.00584
G1 X121.462 Y93.081 E0.03967
G1 X120.831 Y93.081 E0.00584
G1 X124.489 Y96.739 E0.04793
G1 X124.489 Y97.369 E0.00584
G1 X120.355 Y93.235 E0.05417
G1 X120.355 Y93.866 E0.00584
G1 X124.489 Y98.000 E0.05417
G1 X124.489 Y98.630 E0.00584
G1 X120.355 Y94.496 E0.05417
G1 X120.355 Y95.126 E0.00584
G1 X124.489 Y99.260 E0.05417
G1 X124.489 Y99.891 E0.00584
G1 X120.355 Y95.756 E0.05417
G1 X120.355 Y96.387 E0.00584
G1 X124.489 Y100.521 E0.05417
G1 X124.489 Y101.151 E0.00584
G1 X120.355 Y97.017 E0.05417
G1 X120.355 Y97.647 E0.00584
G1 X124.489 Y101.782 E0.05417
G1 X124.489 Y102.412 E0.00584
G1 X120.355 Y98.278 E0.05417
G1 X120.355 Y98.908 E0.00584
G1 X124.489 Y103.042 E0.05417
G1 X124.489 Y103.672 E0.00584
G1 X120.355 Y99.538 E0.05417
G1 X120.355 Y100.169 E0.00584
G1 X124.489 Y104.303 E0.05417
G1 X124.489 Y104.933 E0.00584
G1 X120.355 Y100.799 E0.05417
G1 X120.355 Y101.429 E0.00584
G1 X124.489 Y105.563 E0.05417
